proprietary/assets/icons/lichaam/oog-met-traan.svg

<svg height="64" viewBox="0 0 64 64" width="64" xmlns="http://www.w3.org/2000/svg"><path d="m0 0h64v64h-64z" fill="none"/><path d="m45.4689 50.8029c-.8265-1.0082-1.3798-2.6933-1.3434-3.3762-.0527-.031-.1252-.0383-.1893.0667-.3564.5838-.6361 1.1363-.7479 1.694-.1918.9587.0425 1.9014.6602 2.6548.7601.9274 2.0059 1.4593 3.4179 1.4593.518 0 1.0119-.0739 1.4684-.2111.127-.0381.1447-.1045.1071-.1564-1.6743-.5624-2.4942-1.0589-3.373-2.1311z"/><path d="m47.5258 34.6431c-.1626-.4855-.308-.6431-.5239-.6431s-.3614.1576-.5241.6431c-2.0964 6.2551-7.2545 9.2206-8.2012 13.9249-.9923 4.9305 2.9394 9.432 8.7252 9.432s9.7031-4.4866 8.7253-9.4321c-.9307-4.7074-6.1048-7.6698-8.2013-13.9248zm4.4943 18.5371c-1.1214 1.356-2.9505 2.1337-5.0182 2.1337-2.0721 0-3.9055-.7825-5.03-2.1469-.9247-1.122-1.2757-2.5262-.9883-3.9539.3428-1.7036 1.6554-3.3631 3.1753-5.2846.931-1.177 1.9238-2.4322 2.8439-3.8668.9187 1.429 1.9113 2.6821 2.842 3.8572 1.5223 1.9221 2.8372 3.582 3.1736 5.2839.285 1.4418-.0695 2.8543-.9983 3.9774z"/><path d="m59.1333 24.3261c-3.2701-5.234-11.9871-16.3261-27.1333-16.3261s-23.8632 11.0921-27.1333 16.3261c-1.0223 1.6362-1.0223 3.7116 0 5.3477 3.2701 5.2341 11.9871 16.3262 27.1333 16.3262 1.8295 0 3.5629-.165 5.2065-.4587.7976-1.649 1.9389-3.1154 3.1334-4.6337.5328-.6774 1.0696-1.3652 1.5864-2.0804-2.7967 1.304-6.0962 2.1728-9.9263 2.1728-15.3801 0-22.2156-14-22.2156-14s3.1024-6.3386 9.8167-10.4856c-.7806 1.4844-1.3102 3.1151-1.5068 4.8386-.9664 8.4688 5.6313 15.647 13.9057 15.647 7.374 0 13.4165-5.7011 13.9602-12.936.3626-4.8261-4.0852-7.814-8.4634-10.129-.1831-.0968-.1678-.2968-.1643-.3411 11.6378 2.6654 16.8831 13.4061 16.8831 13.4061s-1.5799 3.2255-4.9183 6.5799c.4193 1 .7161 2.2874 2.4617 4.7943 3.5276-3.0823 5.9609-6.4382 7.3743-8.7004 1.0223-1.6361 1.0223-3.7115 0-5.3477zm-21.0333-1.3261c0 3.369-2.731 6.1-6.1 6.1s-6.1-2.731-6.1-6.1 2.731-6.1 6.1-6.1 6.1 2.731 6.1 6.1z"/></svg>

<?xml version="1.0" encoding="utf-8"?>
<!-- Generator: Adobe Illustrator 18.1.1, SVG Export Plug-In . SVG Version: 6.00 Build 0)  -->
<svg version="1.2" baseProfile="tiny" xmlns="http://www.w3.org/2000/svg" xmlns:xlink="http://www.w3.org/1999/xlink" x="0px"
	 y="0px" width="64px" height="64px" viewBox="0 0 64 64" xml:space="preserve">
<g id="Box">
	<rect fill="none" width="64" height="64"/>
</g>
<g id="Icon">
	<g>
		<path d="M45.4689,50.8029c-0.8265-1.0082-1.3798-2.6933-1.3434-3.3762c-0.0527-0.031-0.1252-0.0383-0.1893,0.0667
			c-0.3564,0.5838-0.6361,1.1363-0.7479,1.694c-0.1918,0.9587,0.0425,1.9014,0.6602,2.6548
			c0.7601,0.9274,2.0059,1.4593,3.4179,1.4593c0.518,0,1.0119-0.0739,1.4684-0.2111c0.127-0.0381,0.1447-0.1045,0.1071-0.1564
			C47.1676,52.3716,46.3477,51.8751,45.4689,50.8029z"/>
		<path d="M47.5258,34.6431C47.3632,34.1576,47.2178,34,47.0019,34c-0.2159,0-0.3614,0.1576-0.5241,0.6431
			c-2.0964,6.2551-7.2545,9.2206-8.2012,13.9249C37.2843,53.4985,41.216,58,47.0018,58c5.7858,0,9.7031-4.4866,8.7253-9.4321
			C54.7964,43.8605,49.6223,40.8981,47.5258,34.6431z M52.0201,53.1802c-1.1214,1.356-2.9505,2.1337-5.0182,2.1337
			c-2.0721,0-3.9055-0.7825-5.03-2.1469c-0.9247-1.122-1.2757-2.5262-0.9883-3.9539c0.3428-1.7036,1.6554-3.3631,3.1753-5.2846
			c0.931-1.177,1.9238-2.4322,2.8439-3.8668c0.9187,1.429,1.9113,2.6821,2.842,3.8572c1.5223,1.9221,2.8372,3.582,3.1736,5.2839
			C53.3034,50.6446,52.9489,52.0571,52.0201,53.1802z"/>
		<path d="M59.1333,24.3261C55.8632,19.0921,47.1462,8,32,8S8.1368,19.0921,4.8667,24.3261c-1.0223,1.6362-1.0223,3.7116,0,5.3477
			C8.1368,34.9079,16.8538,46,32,46c1.8295,0,3.5629-0.165,5.2065-0.4587c0.7976-1.649,1.9389-3.1154,3.1334-4.6337
			c0.5328-0.6774,1.0696-1.3652,1.5864-2.0804C39.1296,40.1312,35.8301,41,32,41C16.6199,41,9.7844,27,9.7844,27
			s3.1024-6.3386,9.8167-10.4856c-0.7806,1.4844-1.3102,3.1151-1.5068,4.8386C17.1279,29.8218,23.7256,37,32,37
			c7.374,0,13.4165-5.7011,13.9602-12.936c0.3626-4.8261-4.0852-7.814-8.4634-10.129c-0.1831-0.0968-0.1678-0.2968-0.1643-0.3411
			C48.9703,16.2593,54.2156,27,54.2156,27s-1.5799,3.2255-4.9183,6.5799c0.4193,1,0.7161,2.2874,2.4617,4.7943
			c3.5276-3.0823,5.9609-6.4382,7.3743-8.7004C60.1556,28.0377,60.1556,25.9623,59.1333,24.3261z M38.1,23
			c0,3.369-2.731,6.1-6.1,6.1s-6.1-2.731-6.1-6.1s2.731-6.1,6.1-6.1S38.1,19.631,38.1,23z"/>
	</g>
</g>
</svg>
